!!!COM: Bach, Johann Sebastian
!!!CDT: 1685/3//-1750/7/28/
!!!OTL@@DE: Nun danket alle Gott
!!!OTL@EN:  From the depths of my heart
!!!AGN: 4-Part Chorale
!!!SCT: BH 032
!!!SCT: BWV 386
**harm	**root	**kern	**kern	**kern	**kern
!	!	!bass	!tenor	!alto	!soprno
*	*Iorgan	*Iorgan	*Iorgan	*Iorgan	*Iorgan
*M4/4	*M4/4	*M4/4	*M4/4	*M4/4	*M4/4
*met(c)	*met(c)	*met(c)	*met(c)	*met(c)	*met(c)
*MM60	*MM60	*MM60	*MM60	*MM60	*MM60
*k[]	*k[]	*k[]	*k[]	*k[]	*k[]
*G#:	*G#:	*G#:	*G#:	*G#:	*G#:
*>[A,A,B]	*>[A,A,B]	*>[A,A,B]	*>[A,A,B]	*>[A,A,B]	*>[A,A,B]
*>A	*>A	*>A	*>A	*>A	*>A
I	4AA	4GG#	4B#	4g#	4dd#
=1	=1	=1	=1	=1	=1
I	4AA	8G#	4B#	4g#	4dd#
.	.	8A#	.	.	.
Ib	4AA	8B#	4B#	4g#	4dd#
.	.	8G#	.	.	.
IV	4DD	8C#	4c#	4g#	4ee#
.	.	8D#	.	.	.
IVb	4DD	8E#	4c#	4g#	4ee#
.	.	8C#	.	.	.
=2	=2	=2	=2	=2	=2
I;	2AA;	2G#;	2B#;	2g#;	2dd#;
r	4r	4r	4r	4r	4r
vib	4FF#	4G#	4e#	4g#	4b#
=3	=3	=3	=3	=3	=3
V7b	4EE	4F##	4d#	4a#	4cc#
I	4AA	4G#	4d#	4g#	4b#
V7	4EE	8D#	4d#	4f##	4a#
.	.	8C#	.	.	.
Ib	4AA	8BB#	4d#	4g#	8.b#
.	.	8GG#	.	.	.
.	.	.	.	.	16cc#
=4	=4	=4	=4	=4	=4
V7	2EE	2D#	8d#	8g#	2a#
.	.	.	16c#	8e#	.
.	.	.	16B#	.	.
.	.	.	4c#	4f##	.
I;	4AA;	4GG#;	4B#;	4d#;	4g#;
=:|!	=:|!	=:|!	=:|!	=:|!	=:|!
*>B	*>B	*>B	*>B	*>B	*>B
V	4EE	4D#	8A#	8f##	4a#
.	.	.	8G#	8e#	.
=5	=5	=5	=5	=5	=5
V	4EE	8D#	8F##	4d#	4a#
.	.	8E#	8G#	.	.
Vb	4EE	8F##	4A#	4d#	4a#
.	.	8D#	.	.	.
I	4AA	8GG#	8A#	4d#	4b#
.	.	8AA#	16G#	.	.
.	.	.	16F##	.	.
Ib	4AA	8BB#	4G#	4d#	4b#
.	.	8GG#	.	.	.
!!linebreak: 2
=6	=6	=6	=6	=6	=6
V;	2EE;	2DD#;	2F##;	2d#;	2a#;
r	4r	4r	4r	4r	4r
V	4EE	4D#	4d#	4f##	4a#
=7	=7	=7	=7	=7	=7
I	4AA	8G#	4d#	4g#	8b#
.	.	8A#	.	.	8cc##
iii	4CC#	8B#	4d#	4f##	4dd#
.	.	8F##	.	.	.
vi7b	4FF#	8G#	4B#	4e#	4dd#
.	.	8E#	.	.	.
V/V	4BB	8A#	4A#	4e#	4cc##
.	.	8AA#	.	.	.
=8	=8	=8	=8	=8	=8
V;	2EE;	2D#;	2A#;	2f##;	2dd#;
r	4r	4r	4r	4r	4r
I	4AA	4GG#	4B#	4g#	4dd#
=9	=9	=9	=9	=9	=9
IV	4DD	8C#	4c#	8g#	4ee#
.	.	8BB#	.	8a#	.
vii/ii	4AA#	8AA#	4B#	4b#	4dd#
.	.	8GG##	.	.	.
ii	4BB	8AA#	4e#	8b#	4cc#
.	.	8C#	.	4a#	.
iiio7b	8CC#	8D#	8f#	.	4b#
V/ii	8FF#	8E#	8e#	8g##	.
=10	=10	=10	=10	=10	=10
ii;	2BB;	2AA#;	2e#;	2a#;	2cc#;
r	4r	4r	4r	4r	4r
Ib	4AA	8BB#	4d#	4g#	4b#
.	.	8C#	.	.	.
=11	=11	=11	=11	=11	=11
V	4EE	4D#	4d#	4f##	4a#
I	8AA	8G#	8d#	4g#	8.b#
vi	8FF#	8E#	8e#	.	.
.	.	.	.	.	16cc#
ii7b	4BB	8C#	8e#	4g#	4.a#
.	.	8AA#	8c#	.	.
V	4EE	8D#	8.A#	4f##	.
.	.	8DD#	.	.	8g#
.	.	.	16d#	.	.
=12	=12	=12	=12	=12	=12
I;	2.AA;	2.GG#;	2.B#;	2.d#;	2.g#;
==	==	==	==	==	==
*-	*-	*-	*-	*-	*-
!!chor2scor: -l 2 -s 0.6 -o %b.pmx
!!!YEC: Copyright 1994, David Huron
!!!YEC: Changes/Additions 2001 by Craig Stuart Sapp
!!!YEN: United States of America
!!!SMA: 371 Bach Chorales, edited by Ludwig Erk, C.F. Peters
!!!PDT: 1850, 1865
!!!ONB: Harmony and Root analysis done manually
